X:757
T:Handsome Sally
R:reel
D:Matt Molloy: Stony Steps
Z:id:hn-reel-757
M:C|
K:Edor
~E2BE ~E2BE|~E2BE AFDF|~E2BE GBdB|1 AFDE FEED:|2 AFDE FEE2||
|:fedB ~A3z|fedB AFD2|~e3f gfef|1 dBAG FDD2:|2 dBAG FEDF||
